**kern	**kern	**dynam
*part1	*part1	*part1
*staff2	*staff1	*
*I"Piano	*	*
*clefF4	*clefG2	*
*k[f#c#]	*k[f#c#]	*
*M3/4	*M3/4	*
=1	=1	=1
*^	*	*
!	!	!	!LO:DY:a
4rBB	[2.FF#	[2.F# [2.f#	fz p >
4rBB	.	.	.
(16GG#XLL	.	.	.
16AA#X	.	.	.
16BB	.	.	.
16C#JJ)	.	.	.
=	=	=	=
*	*	*^	*
(4BB 4D	2.FF#]	2.F#] 2.f#]	(4B 4d	] >
2AA#X) 2C#	.	.	2A#X) 2c#	]
*	*	*v	*v	*
=	=	=	=
!	!	!	!LO:DY:a
4rBB	[2.GG	[2.G [2.g	fz p >
4rBB	.	.	.
8rBB	.	.	]
(24AA#XLL	.	.	.
24BB	.	.	.
24C#JJ)	.	.	.
=	=	=	=
*	*	*^	*
(4BB 4D	2.GG]	2.G] 2.g]	(4B 4d	>
2AA#X) 2C#	.	.	2A#X) 2c#	]
*	*	*v	*v	*
=	=	=	=
!	!	!	!LO:DY:a
4rBB	[2.FF#	[2.F# [2.f#	p >
4rBB	.	.	.
(16GG#XLL	.	.	]
16AA#X	.	.	.
16BB	.	.	.
16C#JJ)	.	.	.
=	=	=	=
((2.BB 2.D	2.FF#_	((2.F#_ 2.B 2.d 2.f#_	pp
*v	*v	*	*
=	=	=
2.FF#;])) 2.AA#X 2.C#	2.F#;])) 2.A#X 2.c# 2.f#]	.
=	=	=
*-	*-	*-
!!!system-decoration: {(s1,s2)}
